X:12
T:Tom Billy's \#2
R:jig
E:10
M:6/8
I:speed 350
K:AMix
~a3 ece|edB ~A3|eaa ece|dcB Ace|\
~a3 ece|edB ~A3|GBd gfe|fdB Ace:|*
~g3 ~a3|bag fed|faf g2e|edB def|\
~g3 ~a3|bge gab|age dBe|~A3 Ace:|**
<end>
<start>
